Logo/Main/BlackFull.svg

<?xml version="1.0" encoding="UTF-8"?>
<svg width="284px" height="32px" viewBox="0 0 284 32" version="1.1" xmlns="http://www.w3.org/2000/svg" xmlns:xlink="http://www.w3.org/1999/xlink">
    <!-- Generator: Sketch 51.2 (57519) - http://www.bohemiancoding.com/sketch -->
    <title>Coloured</title>
    <desc>Created with Sketch.</desc>
    <defs></defs>
    <g id="Page-1" stroke="none" stroke-width="1" fill="none" fill-rule="evenodd">
        <g id="Coloured" fill="#000000">
            <path d="M30.3790459,31.293 C24.1866414,31.2718728 18.6894566,27.3247745 16.6900459,21.464 C15.8460459,21.423 15.0250459,21.35 14.2020459,21.25 C13.5750459,21.191 12.9210459,21.101 12.2770459,20.983 C8.20090289,20.2874002 4.33245161,18.687192 0.956045922,16.3 L0.701045922,16.125 C0.290895537,15.7815795 0.039655445,15.2848833 0.00604592213,14.751 C-0.0193112457,14.4338898 0.0353602673,14.1154884 0.165045922,13.825 C0.45459545,13.1411494 1.10328176,12.6775261 1.84404592,12.625 C2.34264644,12.5778968 2.83968028,12.7295586 3.22704592,13.047 L3.51104592,13.314 C5.20662799,14.865677 7.21505965,16.035955 9.40104592,16.746 L9.61804592,16.805 C10.1034328,16.9600119 10.5964058,17.0901807 11.0950459,17.195 L11.1130459,17.195 L11.2740459,17.233 C12.9349107,17.6333411 14.6182561,17.9338788 16.3150459,18.133 C16.3150459,18.121 16.3150459,18.112 16.3150459,18.101 C16.9313044,14.348945 18.9961214,10.9888593 22.0650459,8.744 L22.2730459,8.597 C24.2668314,7.18957829 26.5845221,6.30990853 29.0100459,6.04 C29.3030459,6.005 29.5990459,5.984 29.8890459,5.967 L31.2050459,5.967 C33.7780459,5.944 36.4390459,5.826 39.1530459,5.618 L40.4950459,5.501 C48.9130595,4.74518146 57.2229524,3.0695213 65.2760459,0.504 L65.2820459,0.504 L65.3730459,0.797 L65.4110459,0.779 L65.3500459,0.481 L66.9780459,0 L66.3890459,1.7 C62.5865989,12.6512919 54.7062396,21.7137052 44.3890459,27 C43.9490459,27.229 43.4950459,27.451 43.0410459,27.665 C40.2254019,28.999434 37.2789808,30.0383223 34.2490459,30.765 L34.0170459,30.797 C33.772779,30.87843 33.5231868,30.9429163 33.2700459,30.99 L33.0700459,31.028 C32.9900777,31.0472019 32.9088874,31.0609007 32.8270459,31.069 L32.3170459,31.148 C32.1970459,31.169 32.0740459,31.189 31.9510459,31.198 C31.4291888,31.2585188 30.9043932,31.2902335 30.3790459,31.293 Z M18.6330459,21.525 C21.2948034,25.6372886 26.053004,27.8909285 30.9210459,27.345 L31.7010459,27.237 C31.9740459,27.193 32.0820459,27.173 32.1900459,27.146 C35.1778513,26.6133025 38.1010573,25.7666085 40.9110459,24.62 C41.8020459,24.265 42.6870459,23.876 43.5430459,23.451 C43.7430459,23.357 43.9240459,23.269 44.1030459,23.176 L44.1180459,23.167 C52.7817233,18.81926 59.7468951,11.7048748 63.9100459,2.951 C60.6250459,4.159 57.2500459,5.225 53.8500459,6.125 L52.6310459,6.425 C49.2080459,7.325 45.4890459,8.092 41.7560459,8.682 C41.5480459,8.72 41.3340459,8.752 41.1080459,8.776 C39.9420459,8.961 38.7520459,9.122 37.5500459,9.26 C35.1940459,9.553 32.7760459,9.77 30.3700459,9.911 C30.0100459,9.926 29.6520459,9.946 29.3000459,9.987 C24.4820634,10.5159645 20.3620976,13.6895612 18.6210459,18.213 C18.6030459,18.254 18.5890459,18.295 18.5710459,18.336 C21.3132655,18.5162166 24.0663495,18.4385423 26.7940459,18.104 C31.8145036,17.4993946 36.6907768,16.022536 41.2030459,13.74 C41.6570459,13.503 41.9910459,13.33 42.3220459,13.148 C42.5100459,13.048 42.6820459,12.948 42.8550459,12.848 C43.0280459,12.748 43.1690459,12.678 43.3090459,12.593 C44.1323793,12.115 44.9383793,11.615 45.7270459,11.093 C45.9391155,10.8719191 46.2629621,10.7993348 46.5491064,10.9087502 C46.8352506,11.0181655 47.0280478,11.2883032 47.0385076,11.5944744 C47.0489674,11.9006457 46.8750558,12.1833113 46.5970459,12.312 C46.2117126,12.6073333 45.8083793,12.905 45.3870459,13.205 C44.9783793,13.495 44.5660459,13.7766667 44.1500459,14.05 L43.6720459,14.364 C43.5020459,14.475 43.3410459,14.575 43.1720459,14.672 C42.8410459,14.886 42.4770459,15.106 42.1110459,15.314 C35.003299,19.4996201 26.8807276,21.6484101 18.6330459,21.525 Z" id="Shape" fill-rule="nonzero"></path>
            <text id="ARJUN-KALBURGI" font-family="Raleway-Bold, Raleway" font-size="25" font-weight="bold">
                <tspan x="69.7415244" y="24.0186134">ARJUN KALBURGI</tspan>
            </text>
        </g>
    </g>
</svg>

<svg xmlns="http://www.w3.org/2000/svg" viewBox="0 0 282.841 31.418"><defs><style>.cls-1{stroke:#000;stroke-miterlimit:10;stroke-width:0.1px;}.cls-2{font-size:25px;font-family:Raleway-ExtraBold, Raleway;font-weight:700;}</style></defs><title>Asset 6</title><g id="Layer_2" data-name="Layer 2"><g id="Layer_1-2" data-name="Layer 1"><path class="cls-1" d="M65.556,1.294A116.355,116.355,0,0,1,40.613,6.322h-.007c-.4.033-.8.072-1.207.1h-.007c-2.689.21-5.384.334-8.088.358l-.043,0c-.412,0-.825,0-1.244,0l-.029,0q-.421.023-.841.068a13.671,13.671,0,0,0-6.578,2.565h-.007a13.768,13.768,0,0,0-5.434,8.752c-.042.286-.084.571-.112.855a.408.408,0,0,1-.131-.011c-.1-.006-.2-.02-.307-.033a42.962,42.962,0,0,1-5.43-.95.183.183,0,0,1-.051-.01,15.838,15.838,0,0,1-1.655-.43l-.171-.051a.133.133,0,0,1-.051-.01,16.882,16.882,0,0,1-6.306-3.722v-.007c-.031-.026-.055-.053-.086-.08l-.008-.007-.008-.007a1.226,1.226,0,0,0-.868-.263A1.214,1.214,0,0,0,.9,14.2a1.193,1.193,0,0,0-.1.579,1.207,1.207,0,0,0,.43.848c.069.045.13.091.2.136a27.1,27.1,0,0,0,11.025,4.555c.624.116,1.253.2,1.88.26.862.1,1.729.178,2.593.217.087.007.182.014.276.014a.351.351,0,0,0,.087,0,13.745,13.745,0,0,0,14.648,9.724c.18-.015.357-.058.536-.08H32.5c.029,0,.064-.012.093-.015.157-.027.322-.041.479-.075a.367.367,0,0,0,.092-.022c.306-.068.611-.136.909-.211a.179.179,0,0,0,.057-.012,44.463,44.463,0,0,0,8.644-3.051c.446-.21.891-.427,1.329-.657A44.344,44.344,0,0,0,65.722,1.562c.034-.119.075-.238.116-.357C65.739,1.235,65.647,1.265,65.556,1.294ZM44.5,23.912c-.194.1-.382.2-.577.285-.877.433-1.778.831-2.681,1.194a43.417,43.417,0,0,1-8.829,2.559,3.981,3.981,0,0,1-.406.076c-.135.025-.271.051-.414.07a.27.27,0,0,1-.079.014l-.465.059a13.72,13.72,0,0,1-13.69-7.356,44.409,44.409,0,0,0,24.432-6.064c.353-.2.7-.411,1.048-.635.152-.092.3-.184.455-.283s.323-.207.488-.322c.817-.536,1.625-1.108,2.408-1.707-.8.535-1.623,1.043-2.452,1.522-.152.092-.3.177-.464.262-.18.1-.36.2-.547.3-.374.2-.756.4-1.138.6a44.254,44.254,0,0,1-14.659,4.442,44.227,44.227,0,0,1-9.327.161,10.987,10.987,0,0,1,.362-1.071,13.735,13.735,0,0,1,11.291-8.7c.373-.045.747-.068,1.115-.083q3.586-.2,7.139-.643c1.19-.14,2.37-.3,3.549-.483h.007c.208-.024.408-.055.615-.093q5.551-.872,10.987-2.264h.007L53.7,5.48H53.7A113.228,113.228,0,0,0,65.385,1.691,44.161,44.161,0,0,1,44.5,23.912Z"/><path class="cls-1" d="M30.429,31.368A14.516,14.516,0,0,1,16.74,21.539c-.844-.041-1.665-.114-2.488-.214-.627-.059-1.281-.149-1.925-.267A27.674,27.674,0,0,1,1.006,16.375L.751,16.2a1.952,1.952,0,0,1-.695-1.374A1.9,1.9,0,0,1,.215,13.9a1.975,1.975,0,0,1,1.679-1.2,1.9,1.9,0,0,1,1.383.422l.284.267a16.085,16.085,0,0,0,5.89,3.432l.217.059a14.994,14.994,0,0,0,1.477.39l.018,0,.161.038a42.8,42.8,0,0,0,5.041.9c0-.012,0-.021,0-.032a14.506,14.506,0,0,1,5.75-9.357l.208-.147A14.454,14.454,0,0,1,29.06,6.115c.293-.035.589-.056.879-.073l1.316,0c2.573-.023,5.234-.141,7.948-.349l1.342-.117A115.735,115.735,0,0,0,65.326.579h.006l.091.293.038-.018L65.4.556,67.028.075l-.589,1.7a45.02,45.02,0,0,1-22,25.3c-.44.229-.894.451-1.348.665a45.075,45.075,0,0,1-8.792,3.1l-.232.032a5.6,5.6,0,0,1-.747.193l-.2.038a1.8,1.8,0,0,1-.243.041l-.51.079c-.12.021-.243.041-.366.05A14.3,14.3,0,0,1,30.429,31.368Zm-7.722-4.073a12.055,12.055,0,0,0,1.067.712,13,13,0,0,0,8.088,1.785,2.492,2.492,0,0,0,.255-.038l.8-.123c.381-.085.677-.152.97-.226a43.66,43.66,0,0,0,8.563-3.013c.437-.208.873-.419,1.3-.645a43.888,43.888,0,0,0,9.946-7,45.033,45.033,0,0,1-8.847,5.838c-.205.108-.4.205-.61.3-.873.431-1.793.838-2.714,1.207a44.292,44.292,0,0,1-8.976,2.6,3.973,3.973,0,0,1-.44.082l-.97.141A14.45,14.45,0,0,1,22.707,27.294ZM18.683,21.6a12.922,12.922,0,0,0,12.288,5.82l.78-.108c.273-.044.381-.064.489-.091a43.113,43.113,0,0,0,8.721-2.526c.891-.355,1.776-.744,2.632-1.169.2-.094.381-.182.56-.275l.015-.009A43.542,43.542,0,0,0,63.96,3.026C60.675,4.234,57.3,5.3,53.9,6.2l-1.219.3c-3.423.9-7.142,1.667-10.875,2.257-.208.038-.422.07-.648.094-1.166.185-2.356.346-3.558.484-2.356.293-4.774.51-7.18.651-.36.015-.718.035-1.07.076a12.958,12.958,0,0,0-10.679,8.226c-.018.041-.032.082-.05.123a43.9,43.9,0,0,0,8.223-.232,43.424,43.424,0,0,0,14.409-4.364c.454-.237.788-.41,1.119-.592.188-.1.36-.2.533-.3s.314-.17.454-.255q1.235-.717,2.418-1.5a.762.762,0,1,1,.87,1.219q-.578.443-1.21.893-.613.435-1.237.845l-.478.314c-.17.111-.331.211-.5.308-.331.214-.695.434-1.061.642A44.943,44.943,0,0,1,18.683,21.6Zm-.765-1.518c1.454.041,2.887.023,4.317-.073-1.568.006-3.144-.032-4.695-.17l-.9-.079.006-.015-.082,0a44.508,44.508,0,0,1-5.433-.938l-.012,0-.208-.053a16.031,16.031,0,0,1-1.7-.443,1.678,1.678,0,0,1-.27-.079A17.478,17.478,0,0,1,2.4,14.362l-.12-.111a.451.451,0,0,0-.275-.053.47.47,0,0,0-.407.29.447.447,0,0,0-.044.229.48.48,0,0,0,.17.34,26.553,26.553,0,0,0,10.864,4.525q.919.167,1.823.252c.7.082,1.383.147,2.069.19l.542.023.032,0,.34.018c.091.006.179.009.267.012Zm4.891-9.908a13.074,13.074,0,0,0-3.329,3.734,14.42,14.42,0,0,1,9.7-5.328c.387-.047.78-.073,1.166-.088,2.359-.135,4.745-.352,7.077-.639,1.184-.138,2.356-.3,3.525-.478.229-.029.413-.056.6-.091q2.479-.391,4.932-.882-2.822.4-5.662.654l-1.369.12c-2.8.217-5.533.337-8.141.36l-1.3,0c-.249.015-.516.035-.785.064a12.954,12.954,0,0,0-6.216,2.424Z"/><text class="cls-2" transform="matrix(0.985, 0, -0.174, 0.985, 66.39, 23.403)">ARJUN KALBURGI</text></g></g></svg>
